public/assets/original/images/Segment-Gastronomie_white.svg

<svg enable-background="new 0 0 68.6 46.7" viewBox="0 0 68.6 46.7" xmlns="http://www.w3.org/2000/svg"><g fill="#fff"><path d="m47.8 12.5c-.5.4-.6 1-.2 1.5 2 2.7 3.1 5.9 3.1 9.3 0 8.5-6.9 15.3-15.3 15.3s-15.4-6.8-15.3-15.3c0-8.5 6.8-15.3 15.3-15.3 3.4 0 6.6 1.1 9.3 3.1.4.4 1.1.4 1.5-.1.4-.4.4-1.1-.1-1.5 0 0-.1-.1-.1-.1-3-2.3-6.8-3.6-10.6-3.6-9.7 0-17.5 7.8-17.5 17.5s7.8 17.5 17.5 17.5 17.5-7.8 17.5-17.4c0-3.8-1.3-7.6-3.6-10.6-.4-.6-1-.7-1.5-.3z"/><path d="m35.4 0c-12.9 0-23.4 10.4-23.4 23.3s10.4 23.3 23.3 23.3 23.3-10.4 23.3-23.3c.1-12.8-10.3-23.3-23.2-23.3zm0 44.5c-11.7 0-21.1-9.5-21.1-21.1s9.4-21.2 21.1-21.2 21.1 9.5 21.1 21.1c0 11.7-9.4 21.2-21.1 21.2z"/><path d="m9.9 0c-.7 0-1.1.5-1.1 1.1v9.1h-2.2v-9.1c0-.6-.5-1.1-1.1-1.1s-1.1.5-1.1 1.1v9.1h-2.2v-9.1c0-.6-.5-1.1-1.1-1.1s-1.1.5-1.1 1.1v13.1c0 2.6 1.8 4.8 4.4 5.4v26c0 .6.5 1.1 1.1 1.1s1.1-.5 1.1-1.1v-26c2.5-.5 4.4-2.8 4.4-5.4v-13.1c0-.6-.5-1.1-1.1-1.1zm-4.4 17.5c-1.8 0-3.3-1.5-3.3-3.3v-1.8h6.6v1.8c0 1.8-1.5 3.3-3.3 3.3z"/><path d="m67.5 0c-3 0-5.5 2.4-5.5 5.5v20.1c0 .6.5 1.1 1.1 1.1h3.3v19c0 .6.5 1.1 1.1 1.1s1.1-.5 1.1-1.1v-44.6c0-.6-.5-1.1-1.1-1.1zm-1.1 24.4h-2.2v-19c0-1.4.9-2.6 2.2-3.1z"/></g></svg>

<?xml version="1.0" encoding="utf-8"?>
<!-- Generator: Adobe Illustrator 21.1.0, SVG Export Plug-In . SVG Version: 6.00 Build 0)  -->
<svg version="1.1" id="Ebene_1" xmlns="http://www.w3.org/2000/svg" xmlns:xlink="http://www.w3.org/1999/xlink" x="0px" y="0px"
	 viewBox="0 0 68.6 46.7" style="enable-background:new 0 0 68.6 46.7;" xml:space="preserve">
<style type="text/css">
	.st0{fill:#FFFFFF;}
</style>
<title>Segment-Gastronomie</title>
<g id="Ebene_2">
	<g id="Ebene_2-2">
		<path class="st0" d="M47.8,12.5c-0.5,0.4-0.6,1-0.2,1.5c0,0,0,0,0,0c2,2.7,3.1,5.9,3.1,9.3c0,8.5-6.9,15.3-15.3,15.3
			S20,31.8,20.1,23.3C20.1,14.8,26.9,8,35.4,8c3.4,0,6.6,1.1,9.3,3.1c0.4,0.4,1.1,0.4,1.5-0.1c0.4-0.4,0.4-1.1-0.1-1.5
			c0,0-0.1-0.1-0.1-0.1c-3-2.3-6.8-3.6-10.6-3.6c-9.7,0-17.5,7.8-17.5,17.5s7.8,17.5,17.5,17.5S52.9,33,52.9,23.4c0,0,0,0,0,0
			c0-3.8-1.3-7.6-3.6-10.6C48.9,12.2,48.3,12.1,47.8,12.5C47.8,12.5,47.8,12.5,47.8,12.5z"/>
		<path class="st0" d="M35.4,0C22.5,0,12,10.4,12,23.3s10.4,23.3,23.3,23.3s23.3-10.4,23.3-23.3l0,0C58.7,10.5,48.3,0,35.4,0z
			 M35.4,44.5c-11.7,0-21.1-9.5-21.1-21.1S23.7,2.2,35.4,2.2c11.7,0,21.1,9.5,21.1,21.1C56.5,35,47.1,44.5,35.4,44.5z"/>
		<path class="st0" d="M9.9,0C9.2,0,8.8,0.5,8.8,1.1c0,0,0,0,0,0v9.1H6.6V1.1C6.6,0.5,6.1,0,5.5,0S4.4,0.5,4.4,1.1v9.1H2.2V1.1
			C2.2,0.5,1.7,0,1.1,0S0,0.5,0,1.1v13.1c0,2.6,1.8,4.8,4.4,5.4v26c0,0.6,0.5,1.1,1.1,1.1s1.1-0.5,1.1-1.1v-26
			c2.5-0.5,4.4-2.8,4.4-5.4V1.1C11,0.5,10.5,0,9.9,0C9.9,0,9.9,0,9.9,0z M5.5,17.5c-1.8,0-3.3-1.5-3.3-3.3v-1.8h6.6v1.8
			C8.8,16,7.3,17.5,5.5,17.5z"/>
		<path class="st0" d="M67.5,0c-3,0-5.5,2.4-5.5,5.5v20.1c0,0.6,0.5,1.1,1.1,1.1l0,0h3.3v19c0,0.6,0.5,1.1,1.1,1.1s1.1-0.5,1.1-1.1
			V1.1C68.6,0.5,68.1,0,67.5,0z M66.4,24.4h-2.2v-19c0-1.4,0.9-2.6,2.2-3.1L66.4,24.4z"/>
	</g>
</g>
</svg>
